X:1
T:D'Bäurin hat d'Katz verlor'n
T:D'Bäurin hat d'Katz verlor'n
T:Wolfgang Amadeus Mozart (1756-1791)
%%score [ 1 2 3 4 ]
L:1/8
Q:3/16=100
M:3/8
K:G
V:1 treble nm="Sopran" snm="S."
V:2 treble nm="Alt" snm="A."
V:3 treble-8 transpose=-12 nm="Tenor" snm="T."
V:4 bass nm="Bass" snm="B."
V:1
!mp! G.G.G | .!^!F (A/F/)D | .G!<(!!<(!.G!<)!.A | .B!<)! z z |!mp! d/c/ e/c/!<(! (B/A/) | %5
w: D'Bäu- rin hat|d'Katz ver- * lor'n|weisz nit, wo's|ist.|Lauft _ im _ Haus _|
 .G (G/F/)!<)!.G |!mf! A (c/A/)!<)!!<(!!<(!F | .G!<)! z z |!mf! (F/G/) (A/!mf!B/) (c/A/) | G z z | %10
w: um und _ schreit:|Mut- zerl _ wo|bist?|Mut\- * zerl,\- * wo *|bist,|
"^cresc." (A/B/) c/d/ (e/c/) | .B!p!B!<(!^c | de!<)!!mf!f | !tenuto!g.g.g |"^A&" f (a/f/)d | %15
w: Mut\- * zerl, * wo _|bist? Lauft und|schreit im Haus,|d'Bäu- rin hat|d'Katz ver- * lor'n|
 (!>!e/f/) (g/f/) (e/^d/) | (!>!e/f/) (g/f/) (e/^d/) | (!>!e/f/) (g/f/) (e/=d/) | %18
w: lautt * im * Haus *|um _ und _ schreit _|Mut- * zerl _ wo *|
!mp! ^c!>(!(e!>)!^G) | z!>(! (e!>)!^G) | z!>(! (e!>)!^G) |"^rit.e dim."!>(! B2!>)! A |!mf! ddd | %23
w: bist? Mut\-zerl,\- *|Mut\- zerl,|Iie\- bes|Mut\- zerl,|d'Bäu- rin hat|
 .!^!^c e/c/A |"^dim." !tenuto!B.B.B | !^!A (^c/A/)F |!p! .G.G.G | .F"^cresc."GA | B(^cd | %29
w: d'Katz ver- * lor'n,|d'Bäu- rin hat|d'Katz ver- * lor'n,|weisz nit wo's|ist, lauft und|schreit: lie- bes|
!f!!>(! (f/e/)d)!>)!^c | d z z | z3 | z!pp!!<(! g!<)!g |!>(! (f!>)!.^c) z | z!p! e"^cresc."^c | %35
w: Mut- * zerl wo|bist?||Lie- bes|Mut- zerl,|lie- bes|
 d (e/^c/)d | (e/^c/)d (e/c/) | d!p! A/B/A |"^cres--scen--do" A/B/A (A/B/) | AB"^e      string."A | %40
w: Mut- zerl, _ lauft|rings _ um im _|Haus, lauft _ im|Haus _ um und _|um, schreit und|
 d^cd |!ff! (eg)"^rit."g | g2 z |!pp! z (e^c |!>(! B2!>)! .A) | z!p!!>(! (g!>)!e | %46
w: lauft und schreit:|Mut zerl wo|bist?|Lie\- bes|Mut- zerl,|lie- bes|
!>(! (d2!>)! (^c) | .c)) z z |!<(! d3- | (d/^c/) (e/d/) (c/!<)!!mf!!mf!B/) |!>(! (A3!>)! | %51
w: Mut- *|zerl,|sag|_ _ lie- * bes _|Mut-|
 A)!<(!.B^c!<)! | d z z | (g/f/)!<(! (e/d/) (^c/!<)!B/) |!f!!>(! A3-!>)! | A!<(!B^c!<)! | %56
w: * zerl, wo|bist?|sag _ lie- * bes _|Mut-|* zerl, wo|
 d!p!!wedge!D!<(!F | A.F!<)!.A | .=c z z | z3 | d z z | d z z | z!mp! FA | d^ce | d^ce | d!>!^ce | %66
w: bist? lie- bes|Mut- zerl, wo|bist?||wo,|wo?|d'Bäu- rin|lauft im Haus|um und schreit:|bist d'rin ver-|
!f! (d2"^rit." e/d/) |!>(! d!>)! z z |!pp! .d.d.d | (d/^c/) (e/d/) (c/B/) | .A!<(!.A!<)!A | %71
w: lo- * *|ren?|'sMut- zerl ist|g’fan- * gen _ wor’n, *|liegt im Ar-|
!>(!!>(! (!>!B2!>)!!>)! G) |!pp! !tenuto!d.d.d | (d/^c/) (e/d/) (=c/B/) | .A.AA |!>(! (B2!>)! G) | %76
w: rest, _|d’Bäu- rin hat|gar _ kein _ Geld, _|dasz sie’s aus-|löst _|
!<(! .A.A.A | !tenuto!A>BA | A.A!<)!A |!>(!!>(! (A2!>)! d)!>)! |!mp! .d!>(!.d!>)!.d | %81
w: ‘sMut- zerl ist|g’fan- gen wor’n,|liegt im Ar-|rest, _|‘sMut- zerl ist|
 !tenuto!d>B.G |!<(! (ddd!<)! |!f! _e2) z |!p! .^c.c!<(!.c!<)! | d2 z | !tenuto!=c.c.c | %87
w: g’fan- gen wor’n,|liegt im Ar-|rest,|liegt im Ar-|rest,|d’Bäu- rin hat|
 !tenuto!B>cB |!pp! A2 z | !tenuto!F2 z | z3 | z3 |!f! .d.d.d | (d/c/) (e/d/) (c/B/) | A.A (B/A/) | %95
w: gar kein Geld,|gar|kein’s.|||lauft im Haus|um * und * schreit: *|Mut- zerl, wo *|
 A!>(!(e!>)!A) | z!>(!!>(!!>(! (e!>)!!>)!!>)!A) | z!p!!>(! (e!>)!"^rit."A) |!>(! B2!>)! A | %99
w: bist, Mut- zerl,|Mut\- zerl,\-|lie- bes|Mut- zerl!|
!mp! G.G.G | (!>!F!>(!A/)F/!>)!D |!p! !tenuto!.B.B.B | (!tenuto!A!>(!c/)A/!>)!F |!mp! z .d.d | %104
w: ‘sMut- zerl ist|g’fan- * gen wor’n,|‘sMut- zerl ist|g’fan- * gen wor’n,|‘sMut- zerl|
 d z/!<(! e/!<)!f | g"^dim."BB | B z/!<(! ^c/!<)!d | eA (!>!e/d/) | d (!>!e/d/)d | %109
w: liegt im Ar-|rest, 'Mut- zerl|liegt im Ar-|rest, die Bäu- *|rin hat _ gar|
 (e/d/)d (!>!e/d/) | .d!<(!f!<)!g |!f! a!p!cB | (!tenuto!d/c/).B!>!A | G!p!(ge) | %114
w: kein _ Geld, kein _|Geld hat kein|Geld dasz sie's|Mut- * zerl aus-|löst, ar- mes|
!>(! !>!^c2!>)! !wedge!d |"^dim." (e=c)A |!>(! !>!F2!>)! .G | z!>(! !tenuto!c/F/!>)!F | %118
w: Mut- zerl|ar- * mes|Mut- zerl|lie- * bes|
 z!>(! (!tenuto!c!>)!F) | z!<(! A!<)!c |!>(! !tenuto!e2!>)! d |!>(! !tenuto!f2!>)! g | %122
w: ar- mes|lie- bes|ar- mes|Mut- zerl|
!p! (e/f/g/B/c/d/ | e/!<(!^G/A/B/c/!<)!A/) |!>(! (d3 | d)!>)!F"^dim."F |"^tempo 1" G z z | %127
w: ar- * * * * *|||* * mes|Ding,|
!p! z!<(! (e/d/) (e/!<)!d/) |!>(! (d>B)!>)!d | z!<(! (e/d/) (e/!<)!d/) |!mf!!>(! (dg)!>)!.B | %131
w: lie- * bes _|Mut- * zerl,|lie- * bes _|Mut- * zerl,|
!<(! B^c!<)!d |!>(! e/A/!>)!.A z | z z!p! A | A2 d | d2 z |!p! .G.G.G | !>!F A/F/D |!<(! .GG!<)!A | %139
w: ach lie- bes|Mut- * zerl,|bist|g’fan- gen|wor’n?|‘sMut- zerl ist|g’fan- gen _ wor’n,|liegt im Ar-|
 B z z | d/c/ (e/c/) (B/A/) | !tenuto!G (G/F/)G | A (c/A/)!>!F | G z z | z!p!!<(! (A!<)!c) | %145
w: rest,|d’Bäu- * rin _ hat _|gar kein _ Geld,|das sie’s _ aus-|löst.|Ar- mes|
!>(! c!>)!.BG |!>(! d3!>)! | d z z | z cB |!<(! (AE)!<)!!>(!F!>)! |!<(! F3-!<)! |!>(! F3!>)! | %152
w: Mut- zerl, bist|g’fan-|gen,|lie- bes|ar- * mes|Mut-||
 !wedge!G z z |] %153
w: zerl!|
V:2
!p!!>(! !tenuto!D3!>)! | .D z .D | !^!D z D | .D z z |!p! G2!<(! D | .D z!<)! E | E z!mf! D | %7
w: D'Bäu-|rin hat|d'Katz ver-|lor'n|lauft rings|um und|schreit: Wo|
 .D!p!BG | D z F | G!p!BG |!>(! F2!>)! z |!mf! !tenuto!.G.G.G | .!^!F (A/F/)D | .D!<(!.D!<)!.E | %14
w: bist? Lauft und|schreit: wo|bist? Lauft und|schreit,|d'Bäu- rin hat|d'Katz ver- * lor'n|weisz nit wo's|
 .AFA | !>!GGF | !>!G"^cresc."GF | !>!GEE | E!p!!>)!!>(!!>(! D2!>)! | C!>)!!>(! !wedge!D2 | %20
w: ist, lauft im|Haus um und|um und sehreit:|Mut\-zerl,\- * wo|bist, wo|* bist,wo|
 ^C!<(! (D!<)!!>(!E) |"^rit.e dim." E2!>)! z | z!mp! .F.^G | !^!E z z | z!p! DE | !^!^C z z | %26
w: bist, wo\_ *|bist|lauft und|schreit,|lauft und|schreit,|
 z!pp! DE | D"^cresc."DD | (D.G)F |!f!!>(! (BA)!>)!G | F z z | z!p! A!<(!A!<)! | %32
w: lauft und|schreit: lie- bes|mut- zerl! schreit:|Mut- zerl wo|bist?|Lie- bes|
!>(! d/B/!>)!!pp!G z | z!pp!!<(! F!<)!F |!>(! (B/G/)D!>)!G | AAA | .AAA |!p! AED | %38
w: Mut- * zerl|lie- bes|Mut- * zerl wo|bist? d'Bäu- rin|lauft und schreit|lauft rings im|
 E"^cres--scen--do"DE | DE"^e      string."F | ^GAG |!ff! AA"^rit."A | A2 z | z3 |!pp! z (GG | %45
w: Haus um und|um, schreit und|lauft und schreit:|Mut- zerl wo|bist?||Lie- bes|
!>(! G.G)!>)! z | z!p! (GG |!>(! G2!>)! .G) | F z F |!<(! G z G!<)! | (F/E/) (G/F/) (E/F/) | %51
w: Mut- zerl,|lie- bes|Mut- zerl!|lauft und|schreit: lieb’s|Mut- * zerl, _ wo _|
 E z A | A2!<(! A | .B z!<)!!<)!!<(! G |!f! (F/E/G/F/) (E/F/) |!>(! E!>)!!<(!!<(!FG!<)!!<)! | %56
w: bist? lauft|um und|um, schreit:|lie- * * * bes _|Mut- zerl, wo|
!<(! F z z!<)! | z!p! D!<(!F | A.F!<)!.A | .c z z | F z z | F z z |!mf! F z z | z3 |!p! F z z | %65
w: bist?|lie- bes|Mut- zerl, wo|bist?|wo,|wo,|wo?||wo|
!mf! G z z |!f!"^rit.""^rit." (A3 |!>(! A)!>)! z z | z3 | z3 |!pp! .D!<(!.D!<)!.D | %71
w: bist,|wo?|_|||liegt in Ar-|
!>(! !>!D2!>)! z | z3 | z3 |!pp! .D.DD | D2 z |!<(! .G.G.G | !tenuto!F>GF | .G.G!<)!.G | F2 z | %80
w: rest,|||dasz sie’s aus-|löst|‘sMut- zerl ist|g’fan- gen wor’n,|liegt im Ar-|rest,|
!mp! .F!>(!.F!>)!.F | !tenuto!G>G.G |!<(! F _A/G/(F!<)! |!f! G2) z |!p! .G!<(!.G.G!<)! | ^F2 z | %86
w: ‘sMut- zerl ist|g’fan- gen wor’n,|liegt im _ Ar-|rest,|liegt im Ar-|rest,|
 !tenuto!F.F.F | !tenuto!G>FG |!pp! E2 z | !tenuto!D2 z |!f! .G.G.G | !^!F (A/F/)D |!mf! =FFF | %93
w: d’Bäu- rin hat|gar kein Geld,|gar|kein’s.|d'Bäu- rin hat|d'Katz ver- * lor'n|lauft im Haus|
 EGG | G.GG | F!>)!!>(! G2 | F!>)!!>(! G2 | F!p!!>(! G2!>)! | F z z | z3 | z3 |!mf! .!^!G.G.G | %102
w: um und schreit:|Mut- zerl, wo|bist, wo|bist, wo|bist, wo|bist?|||‘sMut- zerl ist|
 (!>!F!>(!A/)F/!>)!!mp!D | !tenuto!.B.B.B | AA A/F/ | .E"^dim."GG | F2 F | EEF | G (!>!F/A/)G | %109
w: g’fan- * gen wor’n,|‘sMut- zerl ist|g’fan- gen wor’n, _|liegt im Ar-|rest, und|liegt im Ar-|rest, d’Bäu- * rin|
 (!>!F/A/)G !>!F/A/ | .G!<(!c!<)!B |!f! c!p!AG | !tenuto!G/A/.G!>!F | G3/2 z/ z | z!p! G!<)!!<(!F | %115
w: hat _ gar kein _|Geld, kein Geld,|dasz sie’s arm|Mut- * zerl aus-|löst,|Im Ar-|
 E z z | z"^dim." _ED | C z C | !tenuto!CCC | C z z |!>(!!>(! !tenuto!A2!>)!!>)! B | %121
w: rest,|im Ar-|rest, im|fin- stern Ar-|rest,|ar- mes|
!>(!!>(! !tenuto!A2!>)! G!>)! |!p! G2 z | E z z | z/!<(! (G/c/B/!<)!!>(! (A/)!>)!G/) | %125
w: Mut- zerl,|ar-|mes,|ar- * * mes _|
 (F2"^dim." A) | G z z |!p! .A!<(!.F F/!<)!A/ | !>!G>GB | .AF (F/A/) | !>!G2 F |!<(! GG!<)!F | %132
w: Mut- *|zerl,|‘sMut- zerl ist _|g’fan- gen wor’n,|liegt im Ar- *|rest, o|du ar- mes|
!>(! G!>)!G z | z3 |!p! F3 | F2 z |!p! .D.E.E | !>!D>DD |!<(! .DD!<)!D | G z z | G.GD | %141
w: Mut- zerl,||g’fan-|gen?|‘sMut- zerl ist|g’fan- gen wor’n,|liegt im Ar-|rest,|d’Bäu- rin hat|
 !tenuto!D z/ D/E | EE!>!D | D z z | z!p!!<(! (F!<)!A) |!>(! A!>)!G z | z!<(! (F!<)!.A) | %147
w: gar kein Geld,|das sie’s aus-|löst.|Ar- mes|Mut- zerl,|ar- mes|
!>(! AG!>)! z | z FG |!<(! (EC)!<)!!>(!C!>)! |!<(! (C3!<)! | C!>(!D!>)!C) | !wedge!B, z z |] %153
w: Mut- zerl,|lie- bes,|ar- * mes|Mut-||zerl!|
V:3
!p!!>(! !tenuto!B3!>)! | .c z .c |!>(! (!^!Bd)!>)!!<(! d/c/ | .B!<)! z z |!p! G2!<(! c | %5
w: D'Bäu-|rin hat|d'Katz * ver- *|lor'n|lauft rings|
 .B z!<)! B | c z!mf! c | .B!p!dB |!>(! (A!>)!.c)!mf!!mf!A | B!p!d!<)!!<(!!>(!B | (c!>)!.A)d | %11
w: um und|schreit: Wo|bist? Lauft und|schreit: * wo|bist? lauft und|schreit * wo|
 .d z z | z3 |!p! B!<(!.B!<)!.^c |"^ist," .d!mf! z d | !>!BB=c | !>!BBc | !>!BBB | %18
w: bist?||weisz nit, wo's|* sie|lauft im Haus|um und schreit:|Mut\-zerl,\- * wo|
 ^c!p!!>)!!>(! B2 | A!>)!!>(!!>)!!>(! B2 | A!<)!!<(!!>)!!>(! B2 | %21
w: bist, wo|bist, wo|bist, wo|
"^rit.e dim."!>(!!>(! (d2!>)!!>)! ^c) | z z!mp! e | !^!A z z | z z ^c | !^!F z z | z!pp! dA | %27
w: bist,\- *|wo|bist,|wo|bist?|Lauft im|
 A"^cresc."BA | dAA |!f! (B/!>(!g/)f!>)!e | d z!p! f | e z (f/e/) | d z (e/d/) | ^c z d/c/ | %34
w: Haus rings her-|um, und schreit:|Mut- * zerl wo|bist, sie|lauft und _|schreit, sie _|lauft und _|
 B z e | d (^c/e/)d | (^c/e/)d (c/e/) | d!p!GF | G"^cres--scen--do"FG | F^c"^e      string."d | %40
w: schreit wo|bist? d’Bäu- * rin|lauft _ um und _|um, lauft im|Haus um und|um, schreit und|
 eeB |!ff! (^ce)"^rit."e | e2 z | z3 |!pp! z (ee |!>(! e.e)!>)! z | z!p! (ee |!>(! e2!>)! .e) | %48
w: lauft und schreit:|Mut- zerl wo|bist?||Lie- bes|Mut- zerl,|lie- bes|Mut- zerl!|
 d z d | B z B |!mp! d/^c/ (e/d/) (c/d/) | ^c z e | d2!<(! d | .d z!<)! d | %54
w: lauft und|schreit: lieb’s|Mut- * zerl, _ wo _|bist? lauft|um und|um, schreit:|
!f!!mf! (d/^c/e/d/) (c/d/) |!>(! ^c!>)!d!<)!!<(!e |!<(! d z z!<)! | z3 | z!mp! DF |!<(! A.F!<)!.A | %60
w: lie- * * * bes _|Mut- zerl, wo|bist?||lie- bes|Mut- zerl, wo|
 .cFA |!<(! c.F!<)!.A |!mf! c z z | z3 |!p! c z z |!mf! B z z |!f!"^rit." (c3 |!>(! c)!>)! z z | %68
w: bist? Lie- bes|Mut- zerl, wo|bist?||wo|bist,|wo?|_|
 z3 | z3 |!pp! .c!<(!.c!<)!.c |!>(! !>!B2!>)! z | z3 | z3 |!pp! .c.cc | B2 z |!<(! .e.e.e | %77
w: ||liegt in Ar-|rest,|||dasz sie’s aus-|löst|‘sMut- zerl ist|
 !tenuto!d>dd | .^c.c!<)!.c | d2!mp! z | .A!>(!.A!>)!.A | (!tenuto!B>d).d |!<(! (_BBB!<)! | %83
w: g’fan- gen wor’n,|liegt im Ar-|rest,|‘sMut- zerl ist|g’fan- gen wor’n,|liegt im Ar-|
!f! _B2) z |!mf! ._B!<(!.A.G!<)! | A2 z |!p! !tenuto!A.A.A | !tenuto!G>AG |!pp! c2 z | %89
w: rest,|liegt im Ar-|rest,|d’Bäu- rin hat|gar kein Geld,|gar|
 !tenuto!c2 z | z3 |!f!!<(! .c.c!<)!.c | !^!B (d/B/)G | G (c/d/) (e/d/) | ^c.cc | d!>)!!>(! ^c2 | %96
w: kein’s||d'Bäu- rin hat|d'Katz ver- * lor'n|lauft und _ schreit _|Mut- zerl, wo|bist, wo|
 d!>)!!>(! ^c2 | d!p!!>(! ^c2!>)! | d z z | z3 | z3 | z3 | z3 |!mp! !tenuto!.d2 .d | %104
w: bist, wo|bist, wo|bist?|||||‘sMut- zerl|
 d z/!<(! ^c/!<)!=c |"^dim." B"^dim.".B.B | B z/!<(! ^A/!<)!=A | GcA | BAB | AB.A | B!<(!d!<)!d | %111
w: liegt im Ar-|rest, ‘sMut- zerl|liegt im Ar-|rest, d’Bäu- rin|hat kein Geld|gar kein Geld,|hat kein Geld|
!f! d!p!dd | !tenuto!e.d!>!c | B3/2 z/ z | z!p! e!<)!!<(!d | =c z z | z"^dim." cB | A z A | %118
w: dasz sie's arm|Mut- zerl aus-|löst|Im Ar-|rest,|im Ar-|rest, im|
 !tenuto!AAA | A z z |!>(!!>(! !tenuto!c2!>)!!>)! B |!>(! !tenuto!c2!>)! B |!p!!p! e2 z | c z z | %124
w: fin- stern Ar-|rest,|ar- mes|Mut- zerl,|ar-|mes,|
 z/!<(! (B/e/d/)!<)!!>(! c/!>)!B/ | (Ac)"^dim.".c | B z z |!mf! !wedge!.c.c.c | %128
w: ar- * * mes _|Mut- * zerl,|du!|‘sMut- zerl ist|
 !>!B!>(! (d/B/)!>)!G | !tenuto!.ccc | B2 A |!<(! GA!<)!A |!>(! e!>)!e z | z3 |!p! d2 (c/A/) | %135
w: g’fan- gen _ wor’n,|liegt im Ar-|rest, o|du ar- mes|Mut- zerl,||g’fan- gen _|
 A2 z |!p! .G.G.A | !>!A>AA |!<(! .GB!<)!c | d z z | G.G.c | BBB | c e/c/!>!A | B!p!AG | %144
w: wor’n?|‘sMut- zerl ist|g’fan- gen wor’n,|liegt im Ar-|rest,|d’Bäu- rin hat|gar kein Geld,|das sie’s _ aus-|löst. Ar- mes|
!>(! d3!>)! | .d z z | z!<(! (A!<)!.c) |!>(! c!>)!.B z | z AB |!<(! (cG)!<)!!>(!A!>)! | %150
w: Mut-|zerl,|ar- mes|Mut- zerl,|lie- bes,|ar- * mes|
!<(!!<(! A3-!<)!!<)! |!>(! A3!>)! | !wedge!G z z |] %153
w: Mut-||zerl!|
V:4
!p!!>(! !tenuto!G,3!>)! | .A, z .A, | !^!B, z F, | .G, z z |!p! E,2!<(! F, | .G, z!<)! E, | %6
w: D'Bäu-|rin hat|d'Katz ver-|lor'n|lauft rings|um und|
 C, z!mf! D, | G,, z z |!p!!<(!!>(! E,3!<)! | G,!>)! z z |!p!!<(!!>(! G,3!<)! | .G,!>)! z z | z3 | %13
w: schreit: Wo|bist?|Mut-|zerl,|Mut-|zerl.||
 z3 | z!mf! D,F, | !>!G,G,A, | !>!G,G,A, | !>!G,G,^G, | A,!mp! z!<(! E, | A,!<)! z!<(! E, | %20
w: |d'Bäu- rin|lauft im Haus|um cresc. schreit:|* Mut\-zerl,\- wo|bist, wo|bist, wo|
 A,!<)! z!<(! E,!<)! |"^rit.e dim."!>(! A,2!>)! z | z z z | z z!mp! D, | !^!G, z z | z z B,, | %26
w: bist, wo|bist?||und|schreit:|wo|
 E,!pp!B,,^C, | (D,"^cresc.".B,)F, | G,E,D, |!f!!>(! G,A,!>)! z |!f! DDD | ^C (E/C/)A, | %32
w: bist? Lie- bes|Mut- zerl wo|bist? lie- bes|Mut zerl!|d’Bäu- rin hat|d’Katz ver- * lor’n,|
 !tenuto!B,.B,B, | A, (^C/A,/)F, |!mp! G,!<(!.G,!<)!G, | F,!p!G,F, | .G,F,G, | F,!p!^C,D, | %38
w: d’Bäu- rin hat|d’Katz ver- * lor’n,|, nit wo’s|ist, lauft im|Haus um und|um, lauft im|
 ^C,"^cres--scen--do"D,C, | D,G,"^e      string."F, | B,A,D |!ff! ^CC"^rit."C | ^C2 z | z3 | %44
w: Haus um und|um, schreit und|lauft und schreit:|Mut- zerl wo|bist?||
!mf!!pp! z (^CC |!>(! (^C.C))!>)! z | z!p! (A,A, |!>(! ^A,2!>)! .A,) | B, z B, |!<(! G, z G,!<)! | %50
w: Lie- bes|Mut- zerrl,|lie- bes|Mut- zerl,|lauft und|schreit: lieb’s|
!mp!!<(! A,3!<)! |!>(! .A,!>)! z G, | F, z!<(! F, | .G, z!<)! G, |!mf!!<(! A,3!<)! | %55
w: Mut-|zerl wo|bist? und|schreit: lieb’s|Mut-|
!>(! .A,!>)! z!<)!!<(!!<(! A, |!<(! D,!<)! z z!<)! | z3 | z3 | z!p!!<(! D,F,!<)! | A,D,F, | %61
w: zerl wo|bist?|||lie- bes|Mut- zerl wo|
!<(! A,D,!<)!!mf!F, | A, z z | z3 |!p! A, z z |!mf! G, z z |!f! F,3- |!>(! F,!>)! z z | z3 | z3 | %70
w: bist denn, wo|bist?||wo|bist,|wo?|_|||
!pp! .F,!<(!.F,!<)!.F, |!>(! !>!G,2!>)! z | z3 | z3 |!pp! .F,.F,F, | G,2 z |!<(! .^C,.C,.C, | %77
w: liegt in Ar-|rest,|||dasz sie’s aus-|löst|‘sMut- zerl ist|
 !tenuto!D,>D,.D, | .E,.E,!<)!.E, | D,2!mp! z |!>(! .=C,.C,!>)!.C, | !tenuto!B,,>B,,B,, | %82
w: g’fan- gen wor’n,|liegt im Ar-|rest,|‘sMut- zerl ist|g’fan- gen wor’n,|
!<(! (_B,,B,,_B,!<)! |!f! _E,2) z |!p! .=E,!<(!.E,!<)!!<(!.E,!<)! | D,2 z | !tenuto!D,.D,.^D, | %87
w: liegt im Ar-|rest,|liegt im Ar-|rest,|d’Bäu- rin hat|
 !tenuto!E,>^D,E, |!pp! C,2 z | !tenuto!D,2 z | z3 |!mf! D, z z | !^!G, z B, | CC, (C,/D,/) | %94
w: gar kein Geld,|gar|kein’s.||hat|d'Katz ver-|lor'n und schreit _|
 E,.E,!tenuto!E, |!>(! D,!>)! z E, | D, z E, | D, z!p!!>(! E, | D,!>)! z z | z3 | z3 | z3 | z3 | %103
w: Mut- zerl, wo|bist, wo|bist, wo|bist, wo|bist?|||||
!f! .!^!G,.G,.G, | (!>!F,A,/)F,/D, | !tenuto!.E,.E,.E, | (!>!D,F,/)D,/B,, | =C,C,C | B,CB, | %109
w: ‘sMut- zerl ist|g’fan- * gen wor’n,|‘sMut- zerl ist|g’fan- * gen wor’n,|liegt im Ar-|rest, d’Bäu- rin|
 CB,.C | B,!<(!A,!<)!G, |!f! F,!p! (D,/F,/)G, | !tenuto!C,.D,!>!D, | E,3/2 z/ z | z3 | z3 | z3 | %117
w: hat kein Geld,|hat kein Geld,|dasz sie’s _ arm|Mut- zerl aus-|löst.||||
!mp! D,2 !tenuto!_E, | D,D,_E, | D, z z | (!tenuto!F,2!>)!!>(! G,) |!>(! !tenuto!^D,2!>)! E, | %122
w: Mut- zerl,|bist im Ar-|rest,|ar- mes|Mut- zerl|
 C,2 z | C, z z | D,2 D, | D,2"^dim." D, |!mf! G,.G,.G, | F, (A,/F,/)D, | .G,.G,.G, | %129
w: ar-|mes,|ar- mes|Mut- zerl,|‘sMut- zerl ist|g’fan- gen _ wor’n,|‘sMut- zerl ist|
 !>!F,!>(! (A,/F,/)!>)!D, | (G,2 ^D,) |!<(! E,E,!<)!D, |!>(! ^C,!>)!C, z | z3 |!p! =C,3 | C,2 z | %136
w: g’fan- gen * wor’n|lie- bes|du ar- mes|Mut- zerl,||g’fan-|gen?|
!p! .B,,.C,.^C, | !>!D, (F,/A,/)C |!<(! .B,G,!<)!F, | =F, z z | E,E,.^F, | !tenuto!G,G,E, | %142
w: ‘sMut- zerl ist|g’fan- gen _ wor’n,|liegt im Ar-|rest|d’Bäu- rin hat|gar kein Geld,|
 C,A,,!>!D, | G,, z z |!p!!>(! D,3!>)! | G, z z |!>(! D,3 | G,,!>)!!<(!B,,G,,!<)! | %148
w: das sie’s aus-|löst.,|ar-|mes|Mut-|zerl, bist ge-|
!>(! D,2!>)! .D, | D,2 D, |!<(! D,3-!<)! |!>(! D,3!>)! | !wedge!G,, z z |] %153
w: fan- gen,|ar- mes|Mut-||zerl!|

